X: 11
M: C|
L: 1/8
K: G
[|\
gecA d2d2 | edcB A2A2 |\
[|\
EFGD G2G2 | ded(c/B/) A2A2 |\
EFGD G2G2 | ded(c/B/) A2A2 |\
edcB cdef | gdab g2g2 |]

